!!!!SEGMENT: pl-kk--kk-i-389--007-004_anonim--missa-no-7-graduale-alleluia-ave-maria.krn
!!!cenid: 17xx:2502
!!!COM: Anonim
!!!COM-rismID: pe30004985
!!!CDT:
!!!CNT:
!!!OPR: [Missa] No. 7.
!!!OTL: Graduale/Alleluia. Ave Maria
!!!OMV: 004
!!!PDT:
!!!AGN: Sacred; Mass
!!!YEC: Copyright 2022 Narodowy Instytut Fryderyka Chopina (https://polishscores.org)
!!!YEM: License CC-BY-4.0 (https://creativecommons.org/licenses/by/4.0)
!!!SMS-siglum: PL-Kk
!!!SMS-shelfmark: Kk.I.389
!!!SMS-variant:
!!!SMS-altvar:
!!!SMS-shelfwork: 007-004 M
!!!NIFC-rismSourceID: 1001146182
!!!NIFC-rismChildID: 1001147245
!!!NIFC-islandoraID: pl-kk:6976
!!!URL-pdf-islandora: https://repozytorium.nifc.pl/islandora/object/pl-kk%3A6976/datastream/PDF/view
!!!URL-scan: https://polish.musicsources.pl/pl/lokalizacje/galeria/rekopisy/5999/1 @EN{Scan on Polish Music Sources Website} @PL{Skany w portalu Dziedzictwo Muzyki Polskiej w otwartym dostępie}
!!!IIIF:
!!!ONB-nifc: UWAGA: S – skan 12-13, A – 31-32, T – 50-51, B – 69-70. Części Mszy: Rorate, Kyrie, Gloria, Graduale, Sanctus, Benedictus, Agnus.
!!!AIN: 1 alto 1 bass 1 soprn 1 tenor
!!!key: F
**kern	**text	**kern	**text	**kern	**text	**kern	**text
*part4	*part4	*part3	*part3	*part2	*part2	*part1	*part1
*staff4	*staff4	*staff3	*staff3	*staff2	*staff2	*staff1	*staff1
*Ibass	*	*Itenor	*	*Ialto	*	*Isoprn	*
*I"Basso.	*	*I"Tenore.	*	*I"Alto.	*	*I"Soprano.	*
*I'B.	*	*I'T.	*	*I'A.	*	*I'S.	*
*I'bass	*	*I'tenor	*	*I'alto	*	*I'soprn	*
*I'Cvox	*	*I'Cvox	*	*I'Cvox	*	*I'Cvox	*
*clefF4	*	*clefC4	*	*clefC3	*	*clefC1	*
*k[b-]	*	*k[b-]	*	*k[b-]	*	*k[b-]	*
*F:	*	*F:	*	*F:	*	*F:	*
*M2/2	*	*M2/2	*	*M2/2	*	*M2/2	*
*met(C.)	*	*met(C.)	*	*met(C.)	*	*met(C.)	*
=1	=1	=1	=1	=1	=1	=1	=1
*	*	*	*	*	*	*all\right	*
!LO:TX:a:t=P:problem= nuty pomocnice	!	!	!	!	!	!	!
!LO:TX:a:t=in F.	!	!LO:TX:a:t=8.	!	!LO:TX:a:t=4.	!	!	!
1r	.	00r	.	00r	.	1cc	Al-
=2	=2	=2	=2	=2	=2	=2	=2
*	*	*	*	*	*	*2\right	*
1r	.	.	.	.	.	2a\	-le-
.	.	.	.	.	.	2f/	-lu-
=3	=3	=3	=3	=3	=3	=3	=3
1r	.	.	.	.	.	2dd\	-ia
.	.	.	.	.	.	2a\	al-
=4	=4	=4	=4	=4	=4	=4	=4
1r	.	.	.	.	.	2b-\	-le-
.	.	.	.	.	.	2cc\	-lu-
=5	=5	=5	=5	=5	=5	=5	=5
1r	.	00r	.	1f	A-	2f/	-ia
.	.	.	.	.	.	2a\	A-
=6	=6	=6	=6	=6	=6	=6	=6
*	*	*	*	*2\right	*	*	*
1r	.	.	.	2e\	-ve	2g\	-ve
.	.	.	.	2c\	Ma-	2g\	ma-
=7	=7	=7	=7	=7	=7	=7	=7
1r	.	.	.	2a\	-ri-	4a\	-ri-
.	.	.	.	.	.	4b-\	.
.	.	.	.	2e\	-a	[2cc\	.
=8	=8	=8	=8	=8	=8	=8	=8
1r	.	.	.	2f\	gra-	2cc\]	.
.	.	.	.	4g\	-ti-	2bn\	.
.	.	.	.	4g\	-a	.	.
=9	=9	=9	=9	=9	=9	=9	=9
1r	.	1c	Gra-	4c/	ple-	2cc\	-a,
.	.	.	.	4c/	-na	.	.
.	.	.	.	2e\	do-	2r	.
!	!	!	!	!	!	!LO:LB:g=original	!
=10	=10	=10	=10	=10	=10	=10	=10
1r	.	2A/	-ti-	2f\	.	2r	.
.	.	2F/	-a	4c\	-mi-	[2a\	gra-
.	.	.	.	4c\	-nus	.	.
=11	=11	=11	=11	=11	=11	=11	=11
*	*	*2\right	*	*	*	*	*
1r	.	2d\	ple-	4d\	te-	4a\]	.
.	.	.	.	4e\	.	4a\	-ti-
.	.	2A\	-na	[2f\	.	2a\	-a
!LO:LB:g=original	!	!	!	!LO:LB:g=original	!	!	!
=12	=12	=12	=12	=12	=12	=12	=12
1r	.	2B-\	Do-	2f\]	.	2g\	ple-
.	.	4c\	-mi-	2e\	.	2g\	-na
.	.	4c\	-nus	.	.	.	.
=13	=13	=13	=13	=13	=13	=13	=13
1F	Do-	2F/	te-	2f\	-cum,	2a\	Do-
.	.	2A\	-cum,	2r	.	4cc\	-mi-
.	.	.	.	.	.	4cc\	-nus
=14	=14	=14	=14	=14	=14	=14	=14
*2\right	*	*	*	*	*	*	*
2E\	-mi-	2G/	be-	2r	.	2cc\	te-
2C/	-nus	2G/	-ne-	4g\	be-	2cc\	-cum,
.	.	.	.	4g\	-ne-	.	.
=15	=15	=15	=15	=15	=15	=15	=15
2A\	te-	4A\	-dic-	2f\	-dic-	2cc\	be-
.	.	4B-\	-ta	.	.	.	.
4E\	-cum,	[2c\	tu,	4g\	-ta	2ee\	-ne-
4E\	be-	.	.	4g\	tu	.	.
!	!	!LO:LB:g=original	!	!	!	!	!
=16	=16	=16	=16	=16	=16	=16	=16
2F\	-ne-	2c\]	.	2a\	in	2dd\	-dic-
2G\	-dic-	2Bn\	in	4g\	mu-	2dd\	-ta
.	.	.	.	4g\	-li-	.	.
=17	=17	=17	=17	=17	=17	=17	=17
2C/	-ta,	2c\	mu-	4g\	-e-	2cc\	tu
.	.	.	.	4g\	-ri-	.	.
4c\	tu	2e\	-li-	4g\	-bus,	2cc\	in
4c\	in	.	.	4r	.	.	.
=18	=18	=18	=18	=18	=18	=18	=18
2.G\	mu-	2.d\	-e-	2r	.	2cc\	mu-
.	.	.	.	2g\	et	2bn\	-li-
4G\	-li-	4d\	-ri-	.	.	.	.
=19	=19	=19	=19	=19	=19	=19	=19
2A\	-e-	1c	-bus	2e\	be-	2bn\	-e-
2A\	-ri-	.	.	2e\	-ne-	2a\	-ri-
!	!	!	!	!	!	!LO:LB:g=original	!
=20	=20	=20	=20	=20	=20	=20	=20
2.E\	-bus,	1Bn	et	2e\	-dic-	2a\	-bus,
.	.	.	.	[2g\	.	2g\	et
4E\	et	.	.	.	.	.	.
!	!	!	!	!LO:LB:g=original	!	!	!
=21	=21	=21	=21	=21	=21	=21	=21
2.F\	be-	1A	.	2g\]	.	2a\	be-
.	.	.	.	[2f\	-ctus	2a\	-ne-
4F\	-ne-	.	.	.	.	.	.
!LO:LB:g=original	!	!	!	!	!	!	!
=22	=22	=22	=22	=22	=22	=22	=22
2C/	-dic-	2G/	be-	2f\]	.	2g\	-dic-
2C/	-tus	2c\	-ne-	2e\	fru-	2g\	-tus
=23	=23	=23	=23	=23	=23	=23	=23
2G\	fruc-	4Bn\	-dic-	2d\	.	2g\	fruc-
.	.	4B\	-tus	.	.	.	.
2C/	-tus	[2c\	fru-	2e\	-ctus	2g\	-tus
=24	=24	=24	=24	=24	=24	=24	=24
1G	Ven-	2c\]	.	4d\	ven-	2g\	Ven-
.	.	.	.	4d\	-tris	.	.
.	.	2Bn\	-ctus	2d\	tu-	2g\	-tris
=25	=25	=25	=25	=25	=25	=25	=25
2C/	-tris	2c\	ven-	2e\	-i	1g	tu-
4c\	tu-	2c\	-tris	2e\	al-	.	.
4B-X\	.	.	.	.	.	.	.
!	!	!LO:LB:g=original	!	!	!	!	!
=26	=26	=26	=26	=26	=26	=26	=26
2A\	-i,	4c\	tu-	2f\	-le-	2a\	-i
.	.	4c\	-i,	.	.	.	.
2F\	al-	2c\	al-	2f\	-lu-	[2cc\	Al-
=27	=27	=27	=27	=27	=27	=27	=27
1B-X	-lelu-	2d\	-le-	1f	-ia	2cc\]	.
.	.	2d\	-lu-	.	.	[2b-X\	.
=28	=28	=28	=28	=28	=28	=28	=28
2c\	-ia	2c\	-ia	2e\	al-	2b-\]	.
2F\	al-	2c\	al-	[2f\	-le-	2a\	-le-
=29	=29	=29	=29	=29	=29	=29	=29
2B-X\	-le-	2d\	-le-	2f\]	.	1g	-lu-
2c\	-lu-	2c\	-lu-	2e\	-lu-	.	.
=30	=30	=30	=30	=30	=30	=30	=30
0F	-ia.	0c	-ia.	0f	-ia.	0a	-ia.
==	==	==	==	==	==	==	==
*-	*-	*-	*-	*-	*-	*-	*-
!!!system-decoration: [(s1,s2,s3,s4)]
!!!ENC: Berenika Jozajtis
!!!END: 2023-11-09
!!!ENC: Leszek Kubiak
!!!END: 2024-01-10
